icons/arrow-up-right-16.svg

<svg xmlns="http://www.w3.org/2000/svg" width="16" height="16" viewBox="0 0 16 16"><path d="M4.53 4.75A.75.75 0 015.28 4h6.01a.75.75 0 01.75.75v6.01a.75.75 0 01-1.5 0v-4.2l-5.26 5.261a.749.749 0 01-1.275-.326.749.749 0 01.215-.734L9.48 5.5h-4.2a.75.75 0 01-.75-.75z"/></svg>

<svg xmlns="http://www.w3.org/2000/svg" width="16" height="16" viewBox="0 0 16 16">
  <defs/>
  <path d="M4.53,4.75 C4.53,4.336 4.866,4 5.28,4 L11.29,4 C11.704,4 12.04,4.336 12.04,4.75 L12.04,10.76 C12.04,11.174 11.704,11.51 11.29,11.51 C10.876,11.51 10.54,11.174 10.54,10.76 L10.54,6.56 L5.28,11.821 C5.093,12.022 4.811,12.104 4.546,12.036 C4.28,11.969 4.072,11.761 4.005,11.495 C3.937,11.23 4.019,10.948 4.22,10.761 L9.48,5.5 L5.28,5.5 C4.866,5.5 4.53,5.164 4.53,4.75 Z"/>
</svg>
